src/assets/ErrorLoading.svg

<svg width="177" height="134" viewBox="0 0 177 134" fill="none" xmlns="http://www.w3.org/2000/svg">
<path d="M167.076 31.4439C162.567 31.4439 162.567 25.8159 158.057 25.8159C153.548 25.8159 153.548 31.4439 149.057 31.4439C144.567 31.4439 144.548 25.8159 140.057 25.8159C135.567 25.8159 135.567 31.4439 131.057 31.4439C126.548 31.4439 126.567 25.8159 122.076 25.8159C117.586 25.8159 117.567 31.4439 113.076 31.4439C108.586 31.4439 108.567 26.7786 104.076 26.7786V124.232H176.076V26.7786C171.567 26.7786 171.567 31.4439 167.076 31.4439Z" fill="url(#paint0_linear)"/>
<path d="M144.356 55.0186C144.356 53.9063 145.258 53.0046 146.37 53.0046H163.489C164.601 53.0046 165.503 53.9063 165.503 55.0186C165.503 56.1309 164.601 57.0326 163.489 57.0326H146.37C145.258 57.0326 144.356 56.1309 144.356 55.0186Z" fill="white"/>
<path d="M115.153 65.0887C115.153 63.9764 116.055 63.0747 117.167 63.0747H163.488C164.601 63.0747 165.502 63.9764 165.502 65.0887C165.502 66.201 164.601 67.1027 163.488 67.1027H117.167C116.055 67.1027 115.153 66.201 115.153 65.0887Z" fill="white"/>
<path d="M115.153 75.1586C115.153 74.0463 116.055 73.1447 117.167 73.1447H163.488C164.601 73.1447 165.502 74.0463 165.502 75.1586C165.502 76.2709 164.601 77.1726 163.488 77.1726H117.167C116.055 77.1726 115.153 76.2709 115.153 75.1586Z" fill="white" fill-opacity="0.9"/>
<path d="M115.153 85.2286C115.153 84.1163 116.055 83.2146 117.167 83.2146H163.488C164.601 83.2146 165.502 84.1163 165.502 85.2286C165.502 86.3409 164.601 87.2426 163.488 87.2426H117.167C116.055 87.2426 115.153 86.3409 115.153 85.2286Z" fill="white" fill-opacity="0.8"/>
<path d="M115.153 95.2985C115.153 94.1862 116.055 93.2845 117.167 93.2845H163.488C164.601 93.2845 165.502 94.1862 165.502 95.2985C165.502 96.4108 164.601 97.3125 163.488 97.3125H117.167C116.055 97.3125 115.153 96.4108 115.153 95.2985Z" fill="white" fill-opacity="0.7"/>
<path d="M115.153 105.368C115.153 104.256 116.055 103.354 117.167 103.354H163.488C164.601 103.354 165.502 104.256 165.502 105.368C165.502 106.481 164.601 107.382 163.488 107.382H117.167C116.055 107.382 115.153 106.481 115.153 105.368Z" fill="white" fill-opacity="0.6"/>
<mask id="mask0" mask-type="alpha" maskUnits="userSpaceOnUse" x="0" y="57" width="89" height="67">
<path fill-rule="evenodd" clip-rule="evenodd" d="M2.05626 85.5899L13.3509 64.496C15.7664 59.9982 20.4489 57.1917 25.5362 57.1917H64.8584C70.0942 57.1917 74.8711 60.1456 77.2191 64.8272L88.1225 86.57C88.6487 87.6245 88.9321 88.7871 88.9321 89.9673V90.6474C88.9321 94.2624 86.5436 97.5921 83.0217 98.3681C79.8235 99.0738 76.6254 97.6624 74.9656 94.9802L69.3385 85.9211L64.8584 123.223C64.8584 123.223 54.0472 123.223 42.0189 118.277C29.9905 113.332 24.3352 107.133 24.3352 107.133L20.6378 81.0623L14.1066 92.3643L15.6989 123.223H5.61874L1.0172 91.4991C0.733818 89.4685 1.08468 87.3974 2.05626 85.5899Z" fill="#EFC16D"/>
</mask>
<g mask="url(#mask0)">
<rect x="-98.3115" y="-32.5779" width="274.647" height="206.486" fill="#242424"/>
</g>
<path d="M13.2371 123.865C11.6176 125.367 11.5226 127.898 13.025 129.518C14.5275 131.137 17.0583 131.232 18.6779 129.73L13.2371 123.865ZM81.7996 60.2616L13.2371 123.865L18.6779 129.73L87.2404 66.1266L81.7996 60.2616Z" fill="#8987FF"/>
<path fill-rule="evenodd" clip-rule="evenodd" d="M80.1753 82.9255L79.381 73.7245H70.24L69.0553 82.9255L74.6153 86.9069L80.1753 82.9255Z" fill="#F5C5B6"/>
<path fill-rule="evenodd" clip-rule="evenodd" d="M16.0142 122.788L19.1719 125.981L16.0007 131.881H6.73019L5.93403 122.788H16.0142Z" fill="#F5C5B6"/>
<circle cx="109.678" cy="39.0909" r="34.5909" fill="white" fill-opacity="0.2" stroke="#8987FF" stroke-width="8"/>
<path d="M45.4996 87.8601L56.1313 57.1917H36.5035L45.4996 87.8601Z" fill="white"/>
<path fill-rule="evenodd" clip-rule="evenodd" d="M41.2186 39.2137C41.3477 39.158 41.4867 39.1235 41.6229 39.0845C41.9176 39.0004 42.2217 38.9407 42.5419 38.9407C43.2066 38.9407 43.8225 39.1407 44.3448 39.475C46.6906 37.7792 47.4179 34.7788 47.4179 34.7788C55.0313 34.7788 59.4575 40.5568 59.4575 40.5568V48.5966C59.4575 50.7776 57.4397 52.3936 55.3271 51.9001L51.3351 50.8494V59.7081L46.4826 64.6428L41.6301 59.7081L41.6229 59.7025V45.5739C41.6174 45.5722 41.6108 45.57 41.6041 45.5683C40.2033 45.1577 39.173 43.8709 39.173 42.3295C39.173 40.9306 40.0161 39.7307 41.2186 39.2137Z" fill="#F5C5B6"/>
<path d="M37.9524 33.9877C33.818 39.6686 34.3494 46.2116 28.4456 53.072C26.4833 55.3521 27.8722 59.7044 30.8804 59.7052L41.6237 59.708L41.6225 59.7024V45.5738C41.617 45.5721 41.6104 45.5699 41.6037 45.5682C40.2029 45.1576 39.1726 43.8708 39.1726 42.3294C39.1726 40.9305 40.0157 39.7306 41.2182 39.2136C41.3473 39.1579 41.4863 39.1234 41.6225 39.0844C41.9172 39.0003 42.2213 38.9406 42.5415 38.9406C43.2062 38.9406 43.8221 39.1406 44.3444 39.4749C46.6902 37.7791 47.4175 34.7787 47.4175 34.7787C55.0309 34.7787 59.6058 40.6863 59.6058 40.6863C61.8558 30.9887 53.8138 28.2192 48.1208 28.2192C45.5274 28.2192 42.7929 29.2631 40.7114 30.8619V30.8591C40.7053 30.8647 40.6997 30.8708 40.6937 30.8764C39.6063 31.7148 38.6653 32.7537 37.9524 33.9877Z" fill="#EC6A6A"/>
<path d="M44.6939 34.3305C46.6495 40.3929 55.6127 41.1752 59.6055 40.6863L58.3832 36.2861L52.2719 32.1304L48.1162 31.1526C47.6273 30.9896 46.2584 31.3971 44.6939 34.3305Z" fill="#EC6A6A"/>
<path d="M55.3262 48.6576C53.5446 46.9952 51.1817 46.2041 47.9657 46.2041" stroke="#242424" stroke-width="1.5"/>
<path fill-rule="evenodd" clip-rule="evenodd" d="M26.5711 73.0853L21.0813 81.52L20.145 80.9112L25.6351 72.4763L26.5711 73.0853Z" fill="#656565"/>
<defs>
<linearGradient id="paint0_linear" x1="186.529" y1="14.4223" x2="70.6588" y2="124.682" gradientUnits="userSpaceOnUse">
<stop stop-color="#FF8D81"/>
<stop offset="1" stop-color="#FFC28F"/>
</linearGradient>
</defs>
</svg>

<svg width="177" height="134" viewBox="0 0 177 134" fill="none" xmlns="http://www.w3.org/2000/svg"><path d="M167.076 31.444c-4.509 0-4.509-5.628-9.019-5.628-4.509 0-4.509 5.628-9 5.628-4.49 0-4.509-5.628-9-5.628-4.49 0-4.49 5.628-9 5.628-4.509 0-4.49-5.628-8.981-5.628-4.49 0-4.509 5.628-9 5.628-4.49 0-4.509-4.665-9-4.665v97.453h72V26.779c-4.509 0-4.509 4.665-9 4.665z" fill="url(#paint0_linear)"/><path d="M144.356 55.019c0-1.113.902-2.014 2.014-2.014h17.119a2.014 2.014 0 010 4.028H146.37a2.014 2.014 0 01-2.014-2.014zM115.153 65.089c0-1.113.902-2.014 2.014-2.014h46.321a2.014 2.014 0 110 4.028h-46.321a2.014 2.014 0 01-2.014-2.014z" fill="#fff"/><path d="M115.153 75.159c0-1.113.902-2.014 2.014-2.014h46.321a2.013 2.013 0 110 4.028h-46.321a2.014 2.014 0 01-2.014-2.014z" fill="#fff" fill-opacity=".9"/><path d="M115.153 85.229c0-1.113.902-2.014 2.014-2.014h46.321a2.014 2.014 0 110 4.028h-46.321a2.014 2.014 0 01-2.014-2.014z" fill="#fff" fill-opacity=".8"/><path d="M115.153 95.299c0-1.113.902-2.015 2.014-2.015h46.321a2.014 2.014 0 110 4.028h-46.321a2.014 2.014 0 01-2.014-2.013z" fill="#fff" fill-opacity=".7"/><path d="M115.153 105.368c0-1.112.902-2.014 2.014-2.014h46.321a2.014 2.014 0 110 4.028h-46.321a2.014 2.014 0 01-2.014-2.014z" fill="#fff" fill-opacity=".6"/><mask id="a" maskUnits="userSpaceOnUse" x="0" y="57" width="89" height="67"><path fill-rule="evenodd" clip-rule="evenodd" d="M2.056 85.59l11.295-21.094a13.841 13.841 0 0112.185-7.304h39.322a13.823 13.823 0 0112.361 7.635L88.123 86.57a7.617 7.617 0 01.81 3.397v.68c0 3.615-2.39 6.945-5.911 7.721a7.542 7.542 0 01-8.056-3.388l-5.627-9.059-4.48 37.302s-10.812 0-22.84-4.946c-12.028-4.945-17.684-11.144-17.684-11.144l-3.697-26.07-6.531 11.301 1.592 30.859H5.619L1.017 91.499a9.653 9.653 0 011.04-5.91z" fill="#EFC16D"/></mask><g mask="url(#a)"><path fill="#242424" d="M-98.311-32.578h274.647v206.486H-98.311z"/></g><path d="M13.237 123.865a4 4 0 005.44 5.865l-5.44-5.865zM81.8 60.262l-68.563 63.603 5.44 5.865L87.24 66.127l-5.44-5.865z" fill="#8987FF"/><path fill-rule="evenodd" clip-rule="evenodd" d="M80.175 82.925l-.794-9.2H70.24l-1.185 9.2 5.56 3.982 5.56-3.981zM16.014 122.788l3.158 3.193-3.171 5.9H6.73l-.797-9.093h10.08z" fill="#F5C5B6"/><circle cx="109.678" cy="39.091" r="34.591" fill="#fff" fill-opacity=".2" stroke="#8987FF" stroke-width="8"/><path d="M45.5 87.86L56.13 57.192H36.504L45.5 87.86z" fill="#fff"/><path fill-rule="evenodd" clip-rule="evenodd" d="M41.219 39.214c.129-.056.268-.09.404-.13a3.33 3.33 0 01.919-.143c.665 0 1.28.2 1.803.534 2.346-1.696 3.073-4.696 3.073-4.696 7.613 0 12.04 5.778 12.04 5.778v8.04c0 2.18-2.018 3.797-4.13 3.303l-3.993-1.05v8.858l-4.852 4.935-4.853-4.935-.007-.005v-14.13c-.006 0-.012-.003-.019-.005a3.375 3.375 0 01-2.431-3.238c0-1.4.843-2.6 2.046-3.116z" fill="#F5C5B6"/><path d="M37.952 33.988c-4.134 5.68-3.603 12.224-9.506 19.084-1.963 2.28-.574 6.632 2.434 6.633l10.744.003-.002-.006V45.574l-.018-.006a3.375 3.375 0 01-2.431-3.239c0-1.398.843-2.598 2.045-3.115.13-.056.268-.09.404-.13a3.33 3.33 0 01.92-.143c.664 0 1.28.2 1.802.534 2.346-1.696 3.073-4.696 3.073-4.696 7.614 0 12.189 5.907 12.189 5.907 2.25-9.697-5.792-12.467-11.485-12.467-2.594 0-5.328 1.044-7.41 2.643v-.003l-.017.017a10.666 10.666 0 00-2.742 3.112z" fill="#EC6A6A"/><path d="M44.694 34.33c1.956 6.063 10.919 6.845 14.911 6.356l-1.222-4.4-6.111-4.156-4.156-.977c-.489-.163-1.858.244-3.422 3.178z" fill="#EC6A6A"/><path d="M55.326 48.658c-1.781-1.663-4.144-2.454-7.36-2.454" stroke="#242424" stroke-width="1.5"/><path fill-rule="evenodd" clip-rule="evenodd" d="M26.571 73.085l-5.49 8.435-.936-.609 5.49-8.435.936.61z" fill="#656565"/><defs><linearGradient id="paint0_linear" x1="186.529" y1="14.422" x2="70.659" y2="124.682" gradientUnits="userSpaceOnUse"><stop stop-color="#FF8D81"/><stop offset="1" stop-color="#FFC28F"/></linearGradient></defs></svg>
